packages/icons/svg/Fill/edit-2.svg

<svg fill="none" height="24" viewBox="0 0 24 24" width="24" xmlns="http://www.w3.org/2000/svg"><path clip-rule="evenodd" d="m17.9655 6.72853-2.694-2.694-1.948 1.949 2.695 2.695zm-12.87498 11.26687c-.03.003-.06.004-.09.004-.264 0-.519-.104-.708-.293-.209-.21-.315-.502-.289-.797l.379-4.17c.042-.457.244-.889.57-1.214l8.99598-8.99597c.702-.705 1.975-.67 2.716.069l2.738 2.738.001.001c.765.766.796 1.984.068 2.714l-8.997 8.99697c-.325.325-.75598.527-1.21398.569zm-.0905 2.0044h13.99998c.55 0 1 .45 1 1s-.45 1-1 1h-13.99998c-.55 0-1-.45-1-1s.45-1 1-1z" fill="#6b7280" fill-rule="evenodd"/></svg>

<svg width="24" height="24" viewBox="0 0 24 24" fill="none" xmlns="http://www.w3.org/2000/svg">
<g id="Icon/Fill/edit-2">
<path id="Mask" fill-rule="evenodd" clip-rule="evenodd" d="M17.9654 6.72867L15.2714 4.03467L13.3234 5.98367L16.0184 8.67867L17.9654 6.72867ZM5.09038 17.9957C5.06038 17.9987 5.03038 17.9997 5.00038 17.9997C4.73638 17.9997 4.48138 17.8957 4.29238 17.7067C4.08338 17.4967 3.97738 17.2047 4.00338 16.9097L4.38238 12.7397C4.42438 12.2827 4.62638 11.8507 4.95238 11.5257L13.9484 2.52967C14.6504 1.82467 15.9234 1.85967 16.6644 2.59867L19.4024 5.33667L19.4034 5.33767C20.1684 6.10367 20.1994 7.32167 19.4714 8.05167L10.4744 17.0487C10.1494 17.3737 9.71838 17.5757 9.26038 17.6177L5.09038 17.9957ZM4.99988 20H18.9999C19.5499 20 19.9999 20.45 19.9999 21C19.9999 21.55 19.5499 22 18.9999 22H4.99988C4.44988 22 3.99988 21.55 3.99988 21C3.99988 20.45 4.44988 20 4.99988 20Z" fill="#000000"/>
</g>
</svg>
